X: 19163
T: Ironlegs
R: hornpipe
M: 4/4
K: Dmajor
|:AG|F2 A2 F2 AG|F2 EF D2 A2|B2 c2 d2 ed|c2 Bc A2 AG|
F2 A2 E2 AG|F2 EF D2 A2|Bc d2 gedc|d2 d2 d2:|
|:e2|fgfg egeg|fgeg egeg|dede cece|dede cece|
BdBd AdAd|BdBd AdAd|Bc d2 gedc|d2 d2 d2:|

